media/img/logo.svg

<svg width="136" height="63" viewBox="0 0 136 63" fill="none" xmlns="http://www.w3.org/2000/svg">
<path d="M45.7091 34.9525V26.8589C45.7091 26.2358 45.4903 25.8322 45.0527 25.6481C45.4903 25.0958 46.0267 24.8196 46.6618 24.8196C47.8475 24.8196 48.4403 25.5206 48.4403 26.9227V35.3349C48.4403 36.3971 48.7296 37.2043 49.3084 37.7566C49.9012 38.3089 50.7269 38.5851 51.7855 38.5851C52.8441 38.5851 53.6628 38.316 54.2415 37.7779C54.8343 37.2255 55.1307 36.4112 55.1307 35.3349V26.8589C55.1307 26.2358 54.9119 25.8322 54.4744 25.6481C54.9119 25.0958 55.4554 24.8196 56.1046 24.8196C57.2762 24.8196 57.8619 25.5206 57.8619 26.9227V34.9525C57.8619 36.7511 57.3609 38.1602 56.3587 39.1799C55.3707 40.1996 53.8463 40.7094 51.7855 40.7094C49.7389 40.7094 48.2145 40.1996 47.2123 39.1799C46.2102 38.1602 45.7091 36.7511 45.7091 34.9525Z" fill="white"/>
<path d="M60.7266 38.5851V26.8589C60.7266 26.2358 60.5149 25.8322 60.0915 25.6481C60.529 25.0958 61.1501 24.8196 61.9546 24.8196C63.0132 24.8196 63.8954 25.3861 64.6012 26.519L70.974 36.9281V26.8589C70.974 26.2358 70.7623 25.8322 70.3388 25.6481C70.7482 25.0958 71.2916 24.8196 71.9691 24.8196C73.1406 24.8196 73.7264 25.5206 73.7264 26.9227V38.6488C73.7264 39.2861 73.8675 39.7676 74.1498 40.0933C73.7828 40.504 73.2535 40.7094 72.5619 40.7094C71.8844 40.7094 71.2775 40.504 70.7411 40.0933C70.2189 39.6685 69.6543 38.9675 69.0473 37.9903L63.479 28.962V38.6488C63.479 39.2578 63.6837 39.6685 64.093 39.8809C63.6555 40.4332 63.1191 40.7094 62.4839 40.7094C61.3124 40.7094 60.7266 40.0013 60.7266 38.5851Z" fill="white"/>
<path d="M79.9561 26.9227V38.6488C79.9561 39.2719 80.1679 39.6826 80.5913 39.8809C80.1537 40.4332 79.6103 40.7094 78.9611 40.7094C77.8036 40.7094 77.2249 40.0013 77.2249 38.5851V26.8589C77.2249 26.2358 77.0132 25.8322 76.5898 25.6481C76.9991 25.0958 77.5355 24.8196 78.1989 24.8196C79.3704 24.8196 79.9561 25.5206 79.9561 26.9227Z" fill="white"/>
<path d="M96.8059 41.4741C97.1024 41.7999 97.2506 42.1893 97.2506 42.6425C97.2506 43.1523 97.1024 43.5843 96.8059 43.9383C96.2131 44.6464 95.3592 45.0005 94.2441 45.0005C93.129 45.0005 92.0492 44.7314 91.0047 44.1932C89.9602 43.6551 89.1345 43.039 88.5276 42.3451C87.9348 41.6512 87.6384 41.0422 87.6384 40.5182C87.6384 40.3058 87.7301 40.1287 87.9136 39.9871C88.1112 39.8313 88.5064 39.6331 89.0992 39.3923C90.6942 38.755 91.9222 37.8274 92.7832 36.6095C93.6583 35.3916 94.0959 33.9541 94.0959 32.2972C94.0959 30.626 93.6724 29.2736 92.8256 28.2397C91.9787 27.1917 90.9342 26.6677 89.6921 26.6677C88.4641 26.6677 87.4972 27.1351 86.7915 28.0698C86.0998 29.0045 85.754 30.2224 85.754 31.7236C85.754 33.2106 86.0787 34.3506 86.728 35.1437C87.3913 35.9226 88.2665 36.3475 89.3533 36.4183C89.2122 36.914 88.9581 37.3388 88.5911 37.6929C88.2241 38.0328 87.7795 38.2027 87.2573 38.2027C86.1422 38.2027 85.1471 37.6716 84.272 36.6095C83.3969 35.5473 82.9593 34.2232 82.9593 32.637C82.9593 30.4136 83.6439 28.5584 85.013 27.0714C86.3821 25.5702 88.09 24.8196 90.1367 24.8196C92.1833 24.8196 93.8348 25.4498 95.091 26.7102C96.3472 27.9565 96.9753 29.663 96.9753 31.8298C96.9753 33.9966 96.3401 35.866 95.0698 37.438C93.7995 39.0099 92.0422 40.0933 89.7979 40.6881C91.04 41.722 92.5785 42.2389 94.4135 42.2389C95.3309 42.2389 96.1284 41.984 96.8059 41.4741Z" fill="white"/>
<path d="M100.794 25.0108H108.628C109.771 25.0108 110.343 25.4711 110.343 26.3916C110.343 26.7456 110.194 27.0997 109.898 27.4537C109.404 27.213 108.705 27.0926 107.802 27.0926H105.664V38.6488C105.664 39.2719 105.875 39.6826 106.299 39.8809C105.861 40.4332 105.318 40.7094 104.668 40.7094C103.511 40.7094 102.932 40.0013 102.932 38.5851V27.0926H99.9682C98.8249 27.0926 98.2533 26.6394 98.2533 25.7331C98.2533 25.3648 98.4085 25.0108 98.719 24.6709C99.1989 24.8975 99.8906 25.0108 100.794 25.0108Z" fill="white"/>
<path d="M122.841 27.8786C122.841 28.3459 122.7 28.7212 122.418 29.0045C122.135 29.2877 121.747 29.4293 121.253 29.4293C120.773 29.4293 120.329 29.2948 119.919 29.0257C120.018 28.785 120.068 28.53 120.068 28.261C120.068 27.8219 119.835 27.4325 119.369 27.0926C118.903 26.7386 118.247 26.5615 117.4 26.5615C116.567 26.5615 115.883 26.7315 115.346 27.0714C114.824 27.3971 114.563 27.8361 114.563 28.3884C114.563 28.9408 114.859 29.4435 115.452 29.8967C116.059 30.3357 116.786 30.7393 117.633 31.1075C118.48 31.4758 119.327 31.8723 120.173 32.2972C121.034 32.7079 121.761 33.246 122.354 33.9116C122.961 34.5631 123.265 35.3066 123.265 36.1421C123.265 37.4734 122.679 38.5709 121.507 39.4348C120.35 40.2845 118.945 40.7094 117.294 40.7094C115.657 40.7094 114.281 40.3837 113.165 39.7322C112.05 39.0666 111.493 38.2169 111.493 37.183C111.493 36.6449 111.669 36.213 112.022 35.8872C112.375 35.5615 112.82 35.3986 113.356 35.3986C113.892 35.3986 114.372 35.5969 114.796 35.9934C114.457 36.3333 114.288 36.7369 114.288 37.2043C114.288 37.6716 114.556 38.0753 115.092 38.4151C115.643 38.755 116.384 38.925 117.315 38.925C118.261 38.925 119.03 38.7126 119.623 38.2877C120.23 37.8628 120.533 37.3388 120.533 36.7157C120.533 36.0926 120.23 35.5544 119.623 35.1012C119.03 34.6339 118.31 34.2232 117.463 33.8691C116.617 33.5009 115.763 33.1185 114.902 32.722C114.055 32.3255 113.328 31.8156 112.721 31.1925C112.128 30.5552 111.832 29.8259 111.832 29.0045C111.832 27.7299 112.375 26.7102 113.462 25.9455C114.563 25.1666 115.904 24.7771 117.485 24.7771C119.065 24.7771 120.35 25.0745 121.338 25.6693C122.34 26.25 122.841 26.9864 122.841 27.8786Z" fill="white"/>
<path d="M126.434 25.0108H134.268C135.411 25.0108 135.982 25.4711 135.982 26.3916C135.982 26.7456 135.834 27.0997 135.538 27.4537C135.044 27.213 134.345 27.0926 133.442 27.0926H131.303V38.6488C131.303 39.2719 131.515 39.6826 131.939 39.8809C131.501 40.4332 130.958 40.7094 130.308 40.7094C129.151 40.7094 128.572 40.0013 128.572 38.5851V27.0926H125.608C124.465 27.0926 123.893 26.6394 123.893 25.7331C123.893 25.3648 124.048 25.0108 124.359 24.6709C124.839 24.8975 125.53 25.0108 126.434 25.0108Z" fill="white"/>
<path fill-rule="evenodd" clip-rule="evenodd" d="M27.6045 1.03923C24.4203 1.35416 22.1065 3.27214 20.8125 6.66908C20.2153 8.23702 20.2053 8.59479 20.755 8.72152C20.9109 8.75744 20.9255 8.73342 20.545 9.06744C19.9624 9.57882 19.3556 10.2723 18.9302 10.9126C18.8045 11.1018 18.6852 11.2773 18.6652 11.3025C18.6319 11.3444 18.6296 11.2635 18.6388 10.3736C18.6544 8.86903 18.7428 8.18713 19.1158 6.69124C19.3669 5.68431 19.497 5.28645 19.8541 4.43263C20.3249 3.30666 20.23 2.88605 19.4523 2.65247C17.96 2.20429 16.4168 3.53712 16.2227 5.4419C15.9813 7.81088 16.3832 11.7674 17.1863 14.9262C17.4197 15.8443 17.4987 15.9695 17.845 15.9703C18.2062 15.971 18.309 15.7613 18.5251 14.5827C18.7173 13.5348 19.4081 12.4434 20.598 11.308C20.977 10.9464 20.951 10.9587 21.0258 11.1049C21.7318 12.4848 23.4037 13.6139 25.023 13.8044C28.7875 14.2473 33.2722 12.5892 39.775 8.35029C40.464 7.90117 40.592 7.66715 40.3146 7.36364C40.2627 7.30678 40.2785 7.3004 40.4108 7.32487C41.0519 7.44351 41.2211 6.78728 40.6613 6.35325C35.8702 2.63852 31.0929 0.694193 27.6045 1.03923ZM29.1678 3.72252C30.707 3.82994 32.0127 4.23168 35.1662 5.56802C37.2384 6.44617 38.1955 6.80412 39.1265 7.04914C39.4001 7.12116 39.3974 7.13103 39.0991 7.14906C37.5926 7.2401 36.2055 7.79905 33.6209 9.35664C31.4177 10.6843 30.7999 11.0373 29.9616 11.4474C26.3145 13.2315 23.7101 12.9248 22.1229 10.5243C21.8973 10.1831 21.8836 10.2333 22.272 9.97767C23.357 9.26356 24.1416 8.91218 26.0789 8.27265C27.4937 7.80565 27.5034 7.80015 27.5063 7.46578C27.5102 7.01007 27.1391 6.88782 25.8394 6.9167C24.4459 6.94766 23.14 7.31533 21.9709 8.00583C21.8403 8.08295 21.7335 8.14034 21.7335 8.13339C21.7335 8.10953 22.0319 7.69686 22.2797 7.37793C24.3437 4.72207 26.569 3.54113 29.1678 3.72252ZM10.1189 9.81162C6.516 10.3163 4.5876 13.3917 5.35088 17.4155C5.6414 18.947 6.11128 20.4663 6.92933 22.5192C7.52693 24.0188 7.70375 24.6308 8.0924 26.5448C8.30635 27.5985 8.16125 28.494 7.60064 29.5798C7.3055 30.1514 6.62647 30.9764 4.85005 32.9215C2.05339 35.9838 0.440399 38.7709 0.104374 41.1218C-0.159231 42.966 0.101085 45.118 0.609234 45.2956C1.0026 45.4331 1.19034 45.2413 1.30583 44.5841C1.7637 41.9789 2.64405 39.892 4.09684 37.9678C5.04688 36.7096 5.50246 36.2039 6.55227 35.2426C10.129 31.9675 11.0075 30.6263 11.1502 28.2229C11.2548 26.4595 10.8824 24.9492 9.43518 21.2691C8.07667 17.8144 7.86687 16.8644 8.15081 15.4538C8.59452 13.2494 10.7342 11.8682 13.8835 11.7532C14.6785 11.7242 14.9879 11.262 14.4724 10.8738C13.4711 10.1198 11.446 9.62573 10.1189 9.81162ZM29.7574 14.2473C29.6306 14.3043 29.5553 14.3996 29.4797 14.5987C28.5412 17.0711 27.8519 18.4794 26.6358 20.4089C24.1472 24.3574 23.6975 27.3897 25.0846 30.8686C25.964 33.0741 26.829 34.1763 30.5658 37.8532C34.5916 41.8145 35.7187 43.7524 35.9087 47.0398C36.2677 53.2502 30.6856 56.6802 24.5301 54.0315C23.9441 53.7794 23.5946 53.9136 23.6147 54.3832C23.6231 54.5806 23.6331 54.5964 24.0126 55.0103C28.4863 59.8902 36.4179 57.6545 38.119 51.034C39.2216 46.7425 38.4504 43.1054 35.7042 39.6461C34.9952 38.7529 34.3869 38.0875 32.8282 36.4996C31.4779 35.1239 30.4795 34.0761 29.9303 33.4583C26.8352 29.9762 26.1042 27.4184 27.2357 24.0293C27.5021 23.2314 27.7728 22.6051 28.5778 20.925C29.6601 18.6661 30.0836 17.5277 30.3015 16.2915C30.4378 15.5185 30.4861 14.6325 30.4009 14.4679C30.2796 14.2335 30.0007 14.1379 29.7574 14.2473ZM25.3886 36.5768C24.9924 36.6857 23.1213 38.6314 22.8167 39.2513C22.6072 39.6776 22.6988 39.8278 23.7137 40.7215C24.7047 41.5942 24.822 41.654 25.239 41.4995C25.6724 41.3389 25.7411 41.1287 25.6821 40.1441C25.6304 39.2829 25.6285 39.301 25.8898 38.1698C26.0228 37.594 26.1105 37.165 26.1102 37.0917C26.1087 36.7356 25.7479 36.4781 25.3886 36.5768ZM13.6592 37.3506C13.042 37.5277 13.0616 37.8082 13.7893 39.2065C14.4791 40.5321 14.4671 40.5031 14.6727 41.3397C14.9245 42.3638 15.0432 42.5215 15.5614 42.5207C15.9907 42.5199 16.0374 42.4741 16.7089 41.3971C17.6035 39.9621 17.608 39.9914 16.3257 38.9304C15.5895 38.3213 14.2682 37.4224 14.0009 37.3489C13.9005 37.3213 13.7588 37.322 13.6592 37.3506ZM21.4662 44.2787C21.124 44.3548 21.0495 44.6063 21.1997 45.1778C22.7709 51.1564 20.8673 55.7721 16.1752 57.3612C10.2734 59.3601 4.57389 56.3738 1.73735 49.7965C1.56599 49.3991 1.46828 49.3105 1.20236 49.3112C0.779713 49.3123 0.672669 49.5592 0.784924 50.274C2.03602 58.2423 9.32992 62.7407 17.1479 60.3657C23.6317 58.396 25.425 52.9387 22.205 44.9759C21.9437 44.33 21.8087 44.2025 21.4662 44.2787Z" fill="white"/>
</svg>

<svg width="136" height="63" viewBox="0 0 136 63" fill="none" xmlns="http://www.w3.org/2000/svg"><path d="M45.71 34.953v-8.094c0-.623-.22-1.027-.657-1.21.437-.553.974-.83 1.609-.83 1.185 0 1.778.702 1.778 2.104v8.412c0 1.062.29 1.87.868 2.422.593.552 1.419.828 2.477.828 1.06 0 1.878-.269 2.457-.807.592-.553.889-1.367.889-2.443v-8.476c0-.623-.22-1.027-.657-1.21.438-.553.981-.83 1.63-.83 1.172 0 1.758.702 1.758 2.104v8.03c0 1.798-.501 3.207-1.503 4.227-.988 1.02-2.513 1.53-4.574 1.53-2.046 0-3.57-.51-4.573-1.53-1.002-1.02-1.503-2.429-1.503-4.227zm15.017 3.632V26.86c0-.623-.212-1.027-.635-1.21.437-.553 1.058-.83 1.863-.83 1.058 0 1.94.567 2.646 1.7l6.373 10.41V26.86c0-.623-.212-1.027-.635-1.21.41-.553.953-.83 1.63-.83 1.172 0 1.757.702 1.757 2.104V38.65c0 .637.142 1.119.424 1.444-.367.411-.897.616-1.588.616a2.918 2.918 0 01-1.82-.616c-.523-.425-1.088-1.126-1.695-2.103l-5.568-9.028v9.687c0 .609.205 1.02.614 1.232-.438.552-.974.828-1.61.828-1.17 0-1.756-.708-1.756-2.124zm19.229-11.662v11.726c0 .623.212 1.034.635 1.232-.437.552-.98.828-1.63.828-1.157 0-1.736-.708-1.736-2.124V26.86c0-.623-.212-1.027-.635-1.21.41-.553.945-.83 1.609-.83 1.171 0 1.757.702 1.757 2.104zm16.85 14.551c.296.326.445.715.445 1.169 0 .51-.149.941-.445 1.295-.593.708-1.447 1.063-2.562 1.063-1.115 0-2.195-.27-3.24-.808-1.044-.538-1.87-1.154-2.476-1.848-.593-.694-.89-1.303-.89-1.827 0-.212.092-.39.276-.53.197-.157.592-.355 1.185-.596 1.595-.637 2.823-1.565 3.684-2.783.875-1.217 1.313-2.655 1.313-4.312 0-1.671-.424-3.023-1.27-4.057-.847-1.048-1.892-1.572-3.134-1.572-1.228 0-2.195.467-2.9 1.402-.692.934-1.038 2.152-1.038 3.654 0 1.487.325 2.627.974 3.42.663.779 1.538 1.203 2.625 1.274-.14.496-.395.92-.762 1.275-.367.34-.811.51-1.334.51-1.115 0-2.11-.531-2.985-1.594-.875-1.062-1.313-2.386-1.313-3.972 0-2.223.685-4.079 2.054-5.566 1.37-1.5 3.077-2.251 5.124-2.251 2.046 0 3.698.63 4.954 1.89 1.256 1.246 1.884 2.953 1.884 5.12 0 2.167-.635 4.036-1.905 5.608s-3.028 2.655-5.272 3.25c1.242 1.034 2.78 1.55 4.615 1.55.918 0 1.715-.254 2.393-.764zm3.988-16.464h7.834c1.143 0 1.715.461 1.715 1.382 0 .354-.149.708-.445 1.062-.494-.241-1.193-.361-2.096-.361h-2.138v11.556c0 .623.211 1.034.635 1.232-.438.552-.981.828-1.631.828-1.157 0-1.736-.708-1.736-2.124V27.093h-2.964c-1.143 0-1.715-.454-1.715-1.36 0-.368.156-.722.466-1.062.48.227 1.172.34 2.075.34zm22.047 2.869c0 .467-.141.842-.423 1.125-.283.284-.671.425-1.165.425-.48 0-.924-.134-1.334-.403.099-.241.149-.496.149-.765 0-.44-.233-.828-.699-1.168-.466-.354-1.122-.532-1.969-.532-.833 0-1.517.17-2.054.51-.522.326-.783.765-.783 1.317 0 .553.296 1.055.889 1.509.607.439 1.334.842 2.181 1.21a50.75 50.75 0 012.54 1.19c.861.41 1.588.949 2.181 1.615.607.651.911 1.395.911 2.23 0 1.331-.586 2.429-1.758 3.293-1.157.85-2.562 1.274-4.213 1.274-1.637 0-3.013-.325-4.129-.977-1.115-.665-1.672-1.515-1.672-2.549 0-.538.176-.97.529-1.296.353-.325.798-.488 1.334-.488s1.016.198 1.44.594c-.339.34-.508.744-.508 1.211 0 .468.268.871.804 1.211.551.34 1.292.51 2.223.51.946 0 1.715-.212 2.308-.637.607-.425.91-.95.91-1.572 0-.623-.303-1.162-.91-1.615-.593-.467-1.313-.878-2.16-1.232-.846-.368-1.7-.75-2.561-1.147a7.374 7.374 0 01-2.181-1.53c-.593-.637-.889-1.366-.889-2.188 0-1.274.543-2.294 1.63-3.059 1.101-.778 2.442-1.168 4.023-1.168 1.58 0 2.865.297 3.853.892 1.002.581 1.503 1.317 1.503 2.21zm3.593-2.869h7.834c1.143 0 1.714.461 1.714 1.382 0 .354-.148.708-.444 1.062-.494-.241-1.193-.361-2.096-.361h-2.139v11.556c0 .623.212 1.034.636 1.232-.438.552-.981.828-1.631.828-1.157 0-1.736-.708-1.736-2.124V27.093h-2.964c-1.143 0-1.715-.454-1.715-1.36 0-.368.155-.722.466-1.062.48.227 1.171.34 2.075.34z" fill="#fff"/><path fill-rule="evenodd" clip-rule="evenodd" d="M27.605 1.04c-3.185.314-5.498 2.232-6.793 5.63-.597 1.567-.607 1.925-.057 2.052.156.035.17.011-.21.345a9.9 9.9 0 00-1.615 1.846c-.125.189-.245.364-.265.39-.033.041-.035-.04-.026-.93.015-1.504.104-2.186.477-3.682.25-1.007.381-1.405.738-2.258.47-1.126.376-1.547-.402-1.78-1.492-.449-3.035.884-3.23 2.789-.24 2.369.161 6.325.964 9.484.234.918.313 1.043.659 1.044.361.001.464-.209.68-1.387.192-1.048.883-2.14 2.073-3.275.379-.362.353-.35.428-.203.706 1.38 2.378 2.509 3.997 2.7 3.765.442 8.25-1.216 14.752-5.455.689-.449.817-.683.54-.986-.052-.057-.036-.064.096-.04.64.12.81-.537.25-.97-4.79-3.715-9.568-5.66-13.056-5.315zm1.563 2.683c1.539.107 2.845.509 5.998 1.845 2.072.878 3.03 1.236 3.96 1.481.274.072.271.082-.027.1-1.506.091-2.893.65-5.478 2.208-2.203 1.327-2.821 1.68-3.66 2.09-3.646 1.785-6.25 1.478-7.838-.923-.226-.34-.24-.29.149-.546 1.085-.714 1.87-1.066 3.807-1.705 1.415-.467 1.424-.473 1.427-.807.004-.456-.367-.578-1.667-.55a7.87 7.87 0 00-3.868 1.09c-.13.077-.238.134-.238.127 0-.023.299-.436.547-.755 2.064-2.656 4.289-3.837 6.888-3.655zm-19.05 6.089c-3.602.504-5.53 3.58-4.767 7.604.29 1.531.76 3.05 1.578 5.103.598 1.5.775 2.112 1.163 4.026.214 1.053.07 1.949-.491 3.035-.295.571-.975 1.396-2.75 3.342-2.798 3.062-4.41 5.849-4.747 8.2-.263 1.844-.003 3.996.505 4.174.394.137.581-.055.697-.712.458-2.605 1.338-4.692 2.79-6.616.95-1.258 1.406-1.764 2.456-2.725 3.577-3.276 4.456-4.617 4.598-7.02.105-1.764-.268-3.274-1.715-6.954-1.358-3.455-1.568-4.405-1.284-5.815.444-2.205 2.583-3.586 5.732-3.7.796-.03 1.105-.492.59-.88-1.002-.754-3.027-1.248-4.354-1.062zm19.64 4.435c-.127.057-.203.153-.278.352-.939 2.472-1.628 3.88-2.844 5.81-2.489 3.948-2.938 6.98-1.551 10.46.879 2.205 1.744 3.307 5.48 6.984 4.027 3.962 5.154 5.9 5.344 9.187.359 6.21-5.223 9.64-11.379 6.992-.586-.253-.935-.118-.915.351.008.198.018.213.398.627 4.473 4.88 12.405 2.645 14.106-3.976 1.103-4.291.331-7.929-2.415-11.388-.709-.893-1.317-1.559-2.876-3.146-1.35-1.376-2.349-2.424-2.898-3.042-3.095-3.482-3.826-6.04-2.694-9.429.266-.798.537-1.424 1.342-3.104 1.082-2.259 1.506-3.397 1.724-4.634.136-.773.184-1.659.099-1.823a.491.491 0 00-.644-.22zm-4.37 22.33c-.396.109-2.267 2.054-2.571 2.674-.21.427-.118.577.897 1.47.99.873 1.108.933 1.525.779.433-.161.502-.371.443-1.356-.052-.861-.053-.843.208-1.974.133-.576.22-1.005.22-1.078-.001-.356-.362-.614-.721-.515zm-11.729.774c-.617.177-.597.457.13 1.855.69 1.326.678 1.297.884 2.134.252 1.024.37 1.181.888 1.18.43 0 .476-.046 1.148-1.123.895-1.435.899-1.406-.383-2.467-.737-.609-2.058-1.508-2.325-1.581a.703.703 0 00-.342.002zm7.807 6.928c-.342.076-.417.327-.266.899 1.57 5.978-.333 10.594-5.025 12.183-5.902 2-11.601-.987-14.438-7.564-.171-.398-.269-.486-.535-.486-.422.001-.53.248-.417.963 1.251 7.968 8.545 12.467 16.363 10.092 6.484-1.97 8.277-7.427 5.057-15.39-.261-.646-.396-.773-.739-.697z" fill="#fff"/></svg>
